!!!!SEGMENT: pl-sa--l-1643--006_anonim--dilecte-mi-noli-me-deserere.krn
!!!cenid: 16xx:1361
!!!COM: Anonim
!!!COM-rismID: pe30004985
!!!CDT:
!!!CNT:
!!!OTL: Dilecte mi noli me deserere
!!!PDT:
!!!AGN: Sacred
!!!SMS-siglum: PL-SA
!!!SMS-shelfmark: L 1643
!!!SMS-shelfwork: 006 W
!!!NIFC-rismSourceID: 1001063746
!!!NIFC-islandoraID:
!!!URL-pdf-islandora:
!!!URL-scan:
!!!ONB-nifc: UWAGA: 8 ksiąg. Primi chori: 1mus Cantus (s. 27-28), C 2dus (s. 25-26), C 3tius (brak), Bassus (s. 23-24); Secondi chori: Primus Cantus (s. 25-26), C 2dus (s. 25-26), Altus (s. 25-26), Bassus (s. 25-26). UWAGA: metrum 2/2 i 3/2 UWAGA! Po ustaleniach z Jackiem w tym konkretnym utworze metrum 2/1 i 3/1
!!!SMS-variant :
!!!SMS-altvar:
!!!AIN: 8 empty
!!!key:
**kern	**text	**kern	**text	**kern	**text	**kern	**text	**kern	**text	**kern	**kern	**text	**kern	**text
*part8	*part8	*part7	*part7	*part6	*part6	*part5	*part5	*part4	*part4	*part3	*part2	*part2	*part1	*part1
*staff8	*staff8	*staff7	*staff7	*staff6	*staff6	*staff5	*staff5	*staff4	*staff4	*staff3	*staff2	*staff2	*staff1	*staff1
*Iempty	*	*Iempty	*	*Iempty	*	*Iempty	*	*Iempty	*	*Iempty	*Iempty	*	*Iempty	*
*I"Baſsus 2di Chori	*	*I"Altus secundi Chori.	*	*I"Cantus 2dus Secundi Chori.	*	*I"Primus Cantus 2di Chori	*	*I"Bassus Primi Chori.	*	*I"Cantus 3tius Primi Chori	*I"Cantus 2dus Primi Chori.	*	*I"Imus Cantus Primi Chori	*
*I'B	*	*I'A	*	*I'S 2	*	*I'S 1	*	*I'B	*	*I'S 3	*I'S 2	*	*I'S 1	*
*clefC3	*	*clefC2	*	*clefC1	*	*clefG2	*	*clefC3	*	*clefC1	*clefC1	*	*clefG2	*
*k[b-]	*	*k[b-]	*	*k[b-]	*	*k[b-]	*	*k[b-]	*	*k[b-]	*k[b-]	*	*k[b-]	*
*g:	*	*g:	*	*g:	*	*g:	*	*g:	*	*g:	*g:	*	*g:	*
*M2/1	*	*M2/1	*	*M2/1	*	*M2/1	*	*M2/1	*	*M2/1	*M2/1	*	*M2/1	*
*met(c|)	*	*met(c|)	*	*met(c|)	*	*met(c|)	*	*met(c|)	*	*met(c|)	*met(c|)	*	*met(c|)	*
=1-	=1-	=1-	=1-	=1-	=1-	=1-	=1-	=1-	=1-	=1-	=1-	=1-	=1-	=1-
!	!	!LO:TX:t=P::problem=oznaczenie tonacji&colon; b- B-	!	!	!	!	!	!	!	!	!	!	!	!
00r	.	00r	.	00r	.	00r	.	0r	.	0ryy	0r	.	1dd	Di-
.	.	.	.	.	.	.	.	.	.	.	.	.	2cc\	-le-
.	.	.	.	.	.	.	.	.	.	.	.	.	2b-/	-cte
=2-	=2-	=2-	=2-	=2-	=2-	=2-	=2-	=2-	=2-	=2-	=2-	=2-	=2-	=2-
.	.	.	.	.	.	.	.	1r	.	0ryy	1r	.	1a,<	mi
*	*	*	*	*	*	*	*	*	*	*	*	*	*	*ij
.	.	.	.	.	.	.	.	1G	Di-	.	1b-	Di-	1dd	Di-
=3-	=3-	=3-	=3-	=3-	=3-	=3-	=3-	=3-	=3-	=3-	=3-	=3-	=3-	=3-
00r	.	00r	.	00r	.	00r	.	2c/	-le-	0ryy	2cc\	-lec-	2ee-X\	-le-
.	.	.	.	.	.	.	.	2B-/	-cte	.	2dd\	-te	2dd\	-cte
.	.	.	.	.	.	.	.	1f	mi	.	1cc	mi	1ff	mi
*	*	*	*	*	*	*	*	*	*	*	*	*	*	*Xij
=4-	=4-	=4-	=4-	=4-	=4-	=4-	=4-	=4-	=4-	=4-	=4-	=4-	=4-	=4-
.	.	.	.	.	.	.	.	2.B-/	no-	0ryy	2.b-\	no-	2.dd\	no-
.	.	.	.	.	.	.	.	4B-/	-li	.	4a\	-li	4dd\	-li
.	.	.	.	.	.	.	.	2c/	me	.	2g/	me	2ee-X\	me
.	.	.	.	.	.	.	.	2B-/	de-	.	2b-\	de-	2dd\	de-
=5-	=5-	=5-	=5-	=5-	=5-	=5-	=5-	=5-	=5-	=5-	=5-	=5-	=5-	=5-
1r	.	1r	.	1r	.	1r	.	2.A/	-se-	0ryy	2.cc\	-se-	2.cc\	-ſe-
.	.	.	.	.	.	.	.	4A/	-re-	.	4a\	-re-	4cc\	-re-
1G	Di-	1g	Di-	1b-	Di-	1dd	Di-	1G	-re	.	1dd	-re	1b-	-re
=6-	=6-	=6-	=6-	=6-	=6-	=6-	=6-	=6-	=6-	=6-	=6-	=6-	=6-	=6-
2c/	-le-	2g\	-le-	2cc\	-le-	2ee-X\	-le-	1r	.	0ryy	1r	.	1r	.
2F/	-cte	2f\	-cte	2a\	-cte	2cc\	-cte	.	.	.	.	.	.	.
1B-	mi	1f	mi	1b-	mi	1dd	mi	1B-	Di-	.	1b-	Di-	1dd	Di-
=7-	=7-	=7-	=7-	=7-	=7-	=7-	=7-	=7-	=7-	=7-	=7-	=7-	=7-	=7-
1r	.	1r	.	1r	.	1r	.	2c/	-le-	0ryy	2g/	-le-	2cc\	-le-
.	.	.	.	.	.	.	.	2G/	-cte	.	2b-\	-cte	2dd\	-cte
2.d\	no-	2.a\	no-	2.dd\	no-	2.ff\	no-	1d	mi	.	1a	mi	1dd	mi
4d\	-li	4a\	-li	4dd\	-li	4ff\	-li	.	.	.	.	.	.	.
=8-	=8-	=8-	=8-	=8-	=8-	=8-	=8-	=8-	=8-	=8-	=8-	=8-	=8-	=8-
*	*	*	*	*	*	*	*	*	*	*	*	*	*custos:dd	*
2c/	me	2.a\	me	2a\	me	2eeny\	me	0r	.	1ryy	0r	.	0r	.
2B-/	de-	.	.	2b-\	de-	2dd\	de-	.	.	.	.	.	.	.
.	.	4g\	de-	.	.	.	.	.	.	.	.	.	.	.
2.A/	-se-	2g\	-se-	2.cc\	-se-	2.cc\	-se-	.	.	1ryy	.	.	.	.
.	.	2f#X\	-re-	.	.	.	.	.	.	.	.	.	.	.
4A/	-re-	.	.	4cc\	-re-	4cc\	-re-	.	.	.	.	.	.	.
!	!	!	!	!	!	!	!	!	!	!	!	!	!LO:LB:g=original	!
=9-	=9-	=9-	=9-	=9-	=9-	=9-	=9-	=9-	=9-	=9-	=9-	=9-	=9-	=9-
1G	-re	1g	-re	1b-	-re	1dd	-re	2.g\	no-	0ryy	2.b-\	no-	2.dd\	no-
.	.	.	.	.	.	.	.	4g\	-li	.	4b-\	-li	4eeny\	-li
0r	.	0r	.	0r	.	0r	.	2f\	me	.	2cc\	me	2ff\	me
.	.	.	.	.	.	.	.	2d\	de-	.	2dd\	de-	2ff\	de-
=10-	=10-	=10-	=10-	=10-	=10-	=10-	=10-	=10-	=10-	=10-	=10-	=10-	=10-	=10-
.	.	.	.	.	.	.	.	2.A/	-se-	0ryy	2dd\	-se-	2.ee\	-ſe-
.	.	.	.	.	.	.	.	.	.	.	2cc#X\	-re-	.	.
.	.	.	.	.	.	.	.	4A/	-re-	.	.	.	4ee\	-re-
2d\	Vs-	2f#X\	Vs-	2a\	Vs-	2dd\	Vs-	1d	-re	.	1dd	-re	1dd,<	-re
4d\	-q(ue)	4f#\	-q(ue)	4a\	-q(ue)	4dd\	-q(ue)	.	.	.	.	.	.	.
4d\	ad	4f#\	ad	4a\	ad	4dd\	ad	.	.	.	.	.	.	.
=11-	=11-	=11-	=11-	=11-	=11-	=11-	=11-	=11-	=11-	=11-	=11-	=11-	=11-	=11-
*	*	*custos:g	*	*	*	*	*	*	*	*	*	*	*	*
!	!	!	!	!LO:SIC:v:s=2bn	!	!	!	!	!	!	!LO:N:acc=#	!	!	!
2g\	ma-	2g\	ma-	2b-\	ma-	2dd\	ma-	2G/	Vs-	0ryy	2bn\	Vs-	2dd\	Vs-
!	!	!LO:LB:g=original	!	!	!	!	!	!	!	!	!	!	!	!
!	!	!	!	!LO:SIC:v:s=4bn	!	!	!	!	!	!	!	!	!	!
4g\	-ne	4g\	-ne	4b-\	-ne	4dd\	-ne	4G/	-q(ue)	.	4b\	-q(ue)	4dd\	-q(ue)
*	*	*	*	*	*	*	*	*	*	*	*custos:cc	*	*	*
!	!	!	!	!LO:SIC:v:s=4bn	!	!	!	!	!	!	!	!	!	!
4g\	lo-	4g\	lo-	4b-\	lo-	4dd\	lo-	4G/	ad	.	4b\	ad	4dd\	ad
*custos:c	*	*	*	*	*	*	*	*	*	*	*	*	*	*
!	!	!	!	!	!	!	!	!	!	!	!LO:LB:g=original	!	!	!
2c/	-qua-	2e/	-qua-	2g/	-qua-	2cc\	-qua-	2c/	ma-	.	2ccny\	ma-	2ee\	ma-
!LO:LB:g=original	!	!	!	!	!	!	!	!	!	!	!	!	!	!
2c,</	-mur	2e,</	-mur	2g,</	-mur	2cc,<\	-mur	4c/	-ne	.	4cc\	-ne	4ee\	-ne
*	*	*	*	*	*	*	*	*custos:F	*	*	*	*	*	*
.	.	.	.	.	.	.	.	4c/	lo-	.	4cc\	lo-	4ee\	lo-
!	!	!	!	!	!	!	!	!LO:LB:g=original	!	!	!	!	!	!
=12-	=12-	=12-	=12-	=12-	=12-	=12-	=12-	=12-	=12-	=12-	=12-	=12-	=12-	=12-
*	*ij	*	*	*	*	*	*	*	*	*	*	*	*	*
*	*	*	*	*custos:a	*	*custos:ff	*	*	*	*	*	*	*	*
2f\	Vs-	2fny\	Vs-	2a\	Vs-	2cc\	Vs-	2F/	-qua-	0ryy	2a\	-qua-	2cc\	-qua-
!	!	!	!	!LO:LB:g=original	!	!LO:LB:g=original	!	!	!	!	!	!	!	!
4f\	-q(ue)	4f\	-q(ue)	4a\	-q(ue)	4ff\	-q(ue)	2F,</	-mur	.	2a,<\	-mur	2cc,<\	-mur
4f\	ad	4f\	ad	4a\	ad	4ff\	ad	.	.	.	.	.	.	.
*	*	*	*	*	*	*	*	*	*ij	*	*	*ij	*	*ij
2f\	ma-	2f\	ma-	2a\	ma-	2cc\	ma-	2F/	Vs-	.	2cc\	Vs-	2ff\	Vs-
4f\	-ne	4f\	-ne	4a\	-ne	4cc\	-ne	4F/	-q(ue)	.	4cc\	-q(ue)	4ff\	-q(ue)
4f\	lo-	4f\	lo-	4a\	lo-	4cc\	lo-	4F/	ad	.	4cc\	ad	4ff\	ad
=13-	=13-	=13-	=13-	=13-	=13-	=13-	=13-	=13-	=13-	=13-	=13-	=13-	=13-	=13-
2B-/	-qua-	2f\	-qua-	2f/	-qua-	2dd\	-qua-	2B-/	ma-	0ryy	2b-y\	ma-	2dd\	ma-
2B-/	-mur	2f\	-mur	2b-\	-mur	2dd\	-mur	4B-/	-ne	.	4b-\	-ne	4dd\	-ne
*	*Xij	*	*	*	*	*	*	*	*	*	*	*	*	*
.	.	.	.	.	.	.	.	4B-/	lo-	.	4b-\	lo-	4dd\	lo-
00r	.	00r	.	00r	.	00r	.	1G	-qua-	.	1b-	-qua-	1dd	-qua-
=14-	=14-	=14-	=14-	=14-	=14-	=14-	=14-	=14-	=14-	=14-	=14-	=14-	=14-	=14-
.	.	.	.	.	.	.	.	2d,<\	-mur	0ryy	2a,<\	-mur	2dd,<\	-mur
*	*	*	*	*	*	*	*	*	*Xij	*	*	*Xij	*	*Xij
.	.	.	.	.	.	.	.	1g	de	.	1b-	de	4dd\	de
.	.	.	.	.	.	.	.	.	.	.	.	.	4cc\	.
.	.	.	.	.	.	.	.	.	.	.	.	.	2dd\	cae-
.	.	.	.	.	.	.	.	2e-X\	cae-	.	2cc\	cae-	1ee-X\	-le-
=15-	=15-	=15-	=15-	=15-	=15-	=15-	=15-	=15-	=15-	=15-	=15-	=15-	=15-	=15-
.	.	.	.	.	.	.	.	1.f	-le-	0ryy	2a\	-le-	.	.
*	*	*	*	*	*	*	*	*	*	*	*	*	*custos:cc	*
.	.	.	.	.	.	.	.	.	.	.	1b-	.	2dd\	.
!	!	!	!	!	!	!	!	!	!	!	!	!	!LO:LB:g=original	!
2r	.	2r	.	2r	.	2r	.	.	.	.	.	.	2.cc\	.
2f\	lo-	2f\	lo-	2cc\	lo-	2ff\	lo-	2F/	-ſti-	.	2a\	-sti-	.	.
.	.	.	.	.	.	.	.	.	.	.	.	.	4cc\	-sti-
=16-	=16-	=16-	=16-	=16-	=16-	=16-	=16-	=16-	=16-	=16-	=16-	=16-	=16-	=16-
2B-/	-qua-	2f\	-qua-	2b-\	-qua-	2dd\	-qua-	1B-	-bus	0ryy	1b-	-bus	1dd	-bus
4B-/	-mur	4f\	-mur	4b-\	-mur	4dd\	-mur	.	.	.	.	.	.	.
4B-/	Vs-	4f\	Vs-	4b-\	Vs-	4dd\	Vs-	.	.	.	.	.	.	.
4d\	-q(ue)	4f\	-q(ue)	4b-\	-q(ue)	4ff\	-q(ue)	2r	.	.	2r	.	2r	.
4B-/	ad	4f\	ad	4b-\	ad	4dd\	ad	.	.	.	.	.	.	.
2f\	ma-	2f\	ma-	2a\	ma-	2cc\	ma-	2F/	lo-	.	2cc\	lo-	2ff\	lo-
=17-	=17-	=17-	=17-	=17-	=17-	=17-	=17-	=17-	=17-	=17-	=17-	=17-	=17-	=17-
2B-/	-ne	2f\	-ne	2b-\	-ne	2dd\	-ne	2B-/	-qua-	0ryy	2b-\	-qua-	2dd\	-qua-
2r	.	2r	.	2r	.	2r	.	4B-/	-mur	.	4b-\	-mur	4dd\	-mur
.	.	.	.	.	.	.	.	4B-/	Vs-	.	4b-\	Vs-	4dd\	vs-
0r	.	0r	.	0r	.	0r	.	4d\	-q(ue)	.	4b-\	-q(ue)	4ff\	-q(ue)
.	.	.	.	.	.	.	.	4B-/	ad	.	4b-\	ad	4dd\	ad
.	.	.	.	.	.	.	.	2f\	ma-	.	2a\	ma-	2cc\	ma-
=18-	=18-	=18-	=18-	=18-	=18-	=18-	=18-	=18-	=18-	=18-	=18-	=18-	=18-	=18-
.	.	.	.	.	.	.	.	2B-/	-ne	0ryy	2b-\	-ne	2dd\	-ne
.	.	.	.	.	.	.	.	4c/	de	.	4g/	de	4ee-X\	de
.	.	.	.	.	.	.	.	4c/	cae-	.	4cc\	cae-	4ee-\	cae-
!	!	!	!	!	!	!	!	!	!	!	!LO:N:acc=#	!	!	!
2r	.	2r	.	2r	.	2r	.	4.G/	-le-	.	4.bn\	-le-	4.dd\	-le-
*	*	*	*	*	*	*	*	*	*	*	*custos:cc	*	*	*
.	.	.	.	.	.	.	.	8G/	-ſti-	.	8b\	-ſti-	8dd\	-ſti-
!	!	!	!	!	!	!	!	!	!	!	!LO:LB:g=original	!	!	!
4c/	de	4g\	de	4g/	de	4ee-X\	de	2c,</	-b(us)	.	2cc,<\	-bus	2cc,<\	-bus
4c/	cae-	4g\	cae-	4g/	cae-	4ee-\	cae-	.	.	.	.	.	.	.
=19-	=19-	=19-	=19-	=19-	=19-	=19-	=19-	=19-	=19-	=19-	=19-	=19-	=19-	=19-
*	*	*	*	*	*	*	*	*	*ij	*	*	*ij	*	*ij
!	!	!	!	!LO:SIC:v:s=4.bn	!	!	!	!	!	!	!	!	!	!
4.G/	-le-	4.g\	-le-	4.b-\	-le-	4.dd\	-le-	4g\	de	0ryy	4bny\	de	4dd\	de
.	.	.	.	.	.	.	.	4g\	cae-	.	4b\	cae-	4dd\	cae-
*custos:d	*	*custos:f#	*	*	*	*	*	*	*	*	*	*	*	*
!	!	!	!	!LO:SIC:v:s=8bn	!	!	!	!	!	!	!	!	!	!
8G/	-sti-	8g\	-ſti-	8b-\	-ſti-	8dd\	-ſti-	.	.	.	.	.	.	.
!LO:LB:g=original	!	!LO:LB:g=original	!	!	!	!	!	!	!	!	!	!	!	!
2d\	-bus	2f#X\	-bus	2a,<\	-bus	2dd,<\	-bus	4.d\	-le-	.	4.dd\	-le-	4.dd\	-le-
.	.	.	.	.	.	.	.	8d\	-ſti-	.	8dd\	-ſti-	8dd\	-ſti-
2g\	de	1g	de	2b-\	de	2dd\	de	2G/	-bus	.	2dd,<\	-bus	2dd,<\	-bus
*	*	*	*	*	*	*	*	*	*Xij	*	*	*Xij	*	*Xij
2g\	ce-	.	.	2b-\	cae-	2dd\	cae-	4G/	de	.	4dd\	de	4gg\	de
.	.	.	.	.	.	.	.	4G/	cae-	.	4dd\	cae-	4gg\	cae-
=20-	=20-	=20-	=20-	=20-	=20-	=20-	=20-	=20-	=20-	=20-	=20-	=20-	=20-	=20-
1.d	-le-	1g	cae-	2g/	-le-	4dd\	-le-	1.d	-le-	1ryy	1.dd	-le-	2gg\	-le-
.	.	.	.	.	.	4cc\	.	.	.	.	.	.	.	.
.	.	.	.	4a\	.	4b-/	.	.	.	.	.	.	4ff#X\	.
*	*	*	*	*custos:a	*	*custos:dd	*	*	*	*	*	*	*	*
.	.	.	.	4b-\	.	4cc\	.	.	.	.	.	.	4eeny\	.
!	!	!	!	!LO:LB:g=original	!	!LO:LB:g=original	!	!	!	!	!	!	!	!
.	.	1g	-le-	2a\	.	2dd\	.	.	.	1ryy	.	.	2ff#X\	.
*	*	*	*	*	*	*	*	*	*	*	*	*	*custos:gg	*
2d\	-sti-	.	.	2a\	-sti-	2dd\	-sti-	2d\	-sti-	.	2dd\	-ſti-	2ff#\	-sti-
!	!	!	!	!	!	!	!	!	!	!	!	!	!LO:LB:g=original	!
=21-	=21-	=21-	=21-	=21-	=21-	=21-	=21-	=21-	=21-	=21-	=21-	=21-	=21-	=21-
!	!	!	!	!LO:N:acc=#	!	!LO:N:acc=#	!	!	!	!	!	!	!	!
0g	-bus	1.d	-sti-	0bn	-bus	0bn	-bus.	0G	-b(us)	0ryy	0dd	-bus	0gg	-bus
.	.	2g\	-bus	.	.	.	.	.	.	.	.	.	.	.
=22-	=22-	=22-	=22-	=22-	=22-	=22-	=22-	=22-	=22-	=22-	=22-	=22-	=22-	=22-
*	*	*	*	*	*	*	*	*custos:A	*	*	*	*	*	*
00r	.	00r	.	00r	.	00r	.	2G/	quid	0ryy	00r	.	0r	.
!	!	!	!	!	!	!	!	!LO:LB:g=original	!	!	!	!	!	!
.	.	.	.	.	.	.	.	2A/	eſt	.	.	.	.	.
.	.	.	.	.	.	.	.	1B-	quod	.	.	.	.	.
=23-	=23-	=23-	=23-	=23-	=23-	=23-	=23-	=23-	=23-	=23-	=23-	=23-	=23-	=23-
.	.	.	.	.	.	.	.	2.c/	lo-	0ryy	.	.	2g/	quid
.	.	.	.	.	.	.	.	.	.	.	.	.	2a/	eſt
.	.	.	.	.	.	.	.	4c/	-que-	.	.	.	.	.
.	.	.	.	.	.	.	.	1d	-ris	.	.	.	1b-\	quòd
.	.	.	.	.	.	.	.	.	.	.	.	.	.	.
=24-	=24-	=24-	=24-	=24-	=24-	=24-	=24-	=24-	=24-	=24-	=24-	=24-	=24-	=24-
!LO:N:vis=00	!	!LO:N:vis=00	!	!LO:N:vis=00	!	!LO:N:vis=00	!	!	!	!	!	!	!	!
00r	.	00r	.	00r	.	00r	.	1e-X	ſo-	0ryy	1g	quid	2.cc\	lo-
.	.	.	.	.	.	.	.	.	.	.	.	.	4cc\	-que-
.	.	.	.	.	.	.	.	2d,<\	-ror	.	2a\	eſt	1dd	-ris
.	.	.	.	.	.	.	.	2d\	quod	.	2b-y\	quod	.	.
=25-	=25-	=25-	=25-	=25-	=25-	=25-	=25-	=25-	=25-	=25-	=25-	=25-	=25-	=25-
.	.	.	.	.	.	.	.	2.c/	lo-	0ryy	2.cc\	lo-	1ee-X	ſo-
.	.	.	.	.	.	.	.	4c/	-que-	.	4cc\	-que-	.	.
.	.	.	.	.	.	.	.	2B-/	-ris	.	2dd\	-ris	0dd	-ror
.	.	.	.	.	.	.	.	2B-/	ſo-	.	2dd\	ſo-	.	.
=26-	=26-	=26-	=26-	=26-	=26-	=26-	=26-	=26-	=26-	=26-	=26-	=26-	=26-	=26-
!LO:N:vis=00	!	!	!	!	!	!LO:N:vis=00	!	!	!	!	!	!	!	!
00r	.	00r	.	00r	.	00r	.	1B-	-ror	0ryy	1b-,<	-ror	.	.
.	.	.	.	.	.	.	.	2.f\	ma-	.	2.a\	ma-	2.cc\	ma-
.	.	.	.	.	.	.	.	4f\	-ne-	.	4a\	-ne-	4cc\	-ne-
=27-	=27-	=27-	=27-	=27-	=27-	=27-	=27-	=27-	=27-	=27-	=27-	=27-	=27-	=27-
.	.	.	.	.	.	.	.	2d\	-re	1ryy	2b-\	-re	2dd\	-re
.	.	.	.	.	.	.	.	2d\	ex-	.	2b-\	ex-	2dd\	ex-
.	.	.	.	.	.	.	.	2e-X\	-tra	1ryy	2b-\	-tra	2b-/	-tra
*	*	*	*	*	*	*	*	*	*	*	*custos:dd	*	*	*
.	.	.	.	.	.	.	.	2c/	cel-	.	2cc\	cael-	2ee-X\	cael-
!	!	!	!	!	!	!	!	!	!	!	!LO:LB:g=original	!	!	!
=28-	=28-	=28-	=28-	=28-	=28-	=28-	=28-	=28-	=28-	=28-	=28-	=28-	=28-	=28-
0r	.	0r	.	0r	.	0r	.	2B-/	-la(m)	0ryy	2dd\	-lam	2dd\	-lam
.	.	.	.	.	.	.	.	2B-/	non	.	2b-\	non	2dd\	non
.	.	.	.	.	.	.	.	2.f\	Va-	.	2.cc\	Va-	2.ffny\	va-
.	.	.	.	.	.	.	.	4f\	-le-	.	4cc\	-le-	4ff\	-le-
=29-	=29-	=29-	=29-	=29-	=29-	=29-	=29-	=29-	=29-	=29-	=29-	=29-	=29-	=29-
1r	.	1r	.	1r	.	1r	.	1B-	-o	1ryy	1b-	-o	1dd	-o
=30-	=30-	=30-	=30-	=30-	=30-	=30-	=30-	=30-	=30-	=30-	=30-	=30-	=30-	=30-
*M3/1	*	*M3/1	*	*M3/1	*	*M3/1	*	*M3/1	*	*M3/1	*M3/1	*	*M3/1	*
!	!	!	!	!	!	!	!	!LO:N:vis=00	!	!	!LO:N:vis=00	!	!LO:N:vis=00	!
1B-	Sed	1fny	Sed	1b-y	Sed	1dd	Sed	00.r	.	1%3ryy	00.r	.	00.r	.
1F	Va-	1a	Va-	1a	Va-	1cc	Va-	.	.	.	.	.	.	.
1G	-le	1g	-le	1b-	-le	1b-y	-le	.	.	.	.	.	.	.
=31-	=31-	=31-	=31-	=31-	=31-	=31-	=31-	=31-	=31-	=31-	=31-	=31-	=31-	=31-
1d	di-	1f#X	di-	1a	di-	1dd	di-	.	.	1%3ryy	.	.	.	.
1d	-cens	1f#	-cens	1a	-cens	1dd	-cens	.	.	.	.	.	.	.
1d	re-	1f#	re-	1a	re-	1dd	re-	.	.	.	.	.	.	.
=32-	=32-	=32-	=32-	=32-	=32-	=32-	=32-	=32-	=32-	=32-	=32-	=32-	=32-	=32-
!	!	!	!	!	!	!	!	!LO:N:vis=00	!	!	!LO:N:vis=00	!	!LO:N:vis=00	!
0e-X	-uer-	0g	-uer-	0g	-uer-	0b-	-uer-	00.r	.	1%3ryy	00.r	.	00.r	.
1c	-tar	1e-X	-tar	1a	-tar	1ee-X	-tar	.	.	.	.	.	.	.
=33-	=33-	=33-	=33-	=33-	=33-	=33-	=33-	=33-	=33-	=33-	=33-	=33-	=33-	=33-
!	!	!LO:TX:t=P:problem=♯ below	!	!	!	!	!	!	!	!	!	!	!	!
0d	ad	0f#X	ad	0a	ad	0dd	ad	.	.	1%3ryy	.	.	.	.
1G	cae-	1g	cae-	1b-	cae-	1b-	cae-	.	.	.	.	.	.	.
=34-	=34-	=34-	=34-	=34-	=34-	=34-	=34-	=34-	=34-	=34-	=34-	=34-	=34-	=34-
0d	-no-	0g	-no-	0a	-no-	0dd	-no-	1%3r	.	1%3ryy	1%3r	.	1%3r	.
*custos:G	*	*	*	*	*	*	*	*	*	*	*	*	*	*
1d	-bi-	1f#X	-bi-	1a	-bi-	1dd	-bi-	.	.	.	.	.	.	.
!LO:LB:g=original	!	!	!	!	!	!	!	!	!	!	!	!	!	!
=35-	=35-	=35-	=35-	=35-	=35-	=35-	=35-	=35-	=35-	=35-	=35-	=35-	=35-	=35-
*	*	*custos:g	*	*	*	*	*	*	*	*	*	*	*	*
!	!	!	!	!	!	!LO:N:acc=#	!	!	!	!	!	!	!	!
!	!	!	!	!	!	!LO:TX:t=P:problem=♯ below	!	!	!	!	!LO:N:acc=#	!	!	!
0.G	-um	0.g	-um	0.g	-um	0.bn	-um	1g	Sed	1%3ryy	1bn	Sed	1dd	Sed
.	.	.	.	.	.	.	.	1g	Va-	.	1b	Va-	1dd	Va-
*	*	*	*	*	*	*	*	*	*	*	*	*	*custos:ee	*
.	.	.	.	.	.	.	.	1g	-le	.	1b	-le	1dd	-le
!	!	!LO:LB:g=original	!	!	!	!	!	!	!	!	!	!	!LO:LB:g=original	!
=36-	=36-	=36-	=36-	=36-	=36-	=36-	=36-	=36-	=36-	=36-	=36-	=36-	=36-	=36-
00.r	.	00.r	.	00.r	.	00.r	.	1d	di-	1%3ryy	1cc	di-	1eeny	di-
.	.	.	.	.	.	.	.	1c	-cens	.	1cc	-cens	1ee	-cens
.	.	.	.	.	.	.	.	1A	re-	.	1cc	re-	1ff	re-
=37-	=37-	=37-	=37-	=37-	=37-	=37-	=37-	=37-	=37-	=37-	=37-	=37-	=37-	=37-
.	.	.	.	.	.	.	.	0B-	-uer-	1%3ryy	0dd	-uer-	0dd	-uer-
*	*	*	*	*	*	*	*	*custos:d	*	*	*	*	*	*
.	.	.	.	.	.	.	.	1c	-tar	.	1cc	-tar	1ee	-tar
!	!	!	!	!	!	!	!	!LO:LB:g=original	!	!	!	!	!	!
=38-	=38-	=38-	=38-	=38-	=38-	=38-	=38-	=38-	=38-	=38-	=38-	=38-	=38-	=38-
!LO:N:vis=00	!	!O:N:vis=00	!	!LO:N:vis=00	!	!LO:N:vis=00	!	!	!	!	!	!	!	!
00.r	.	00.r	.	00.r	.	00.r	.	0d	ad	1%3ryy	0a	ad	0ff#X	ad
.	.	.	.	.	.	.	.	1e-X	cae-	.	1cc	cae-	1gg	cae-
=39-	=39-	=39-	=39-	=39-	=39-	=39-	=39-	=39-	=39-	=39-	=39-	=39-	=39-	=39-
.	.	.	.	.	.	.	.	0d	-no-	1%3ryy	0dd	-no-	0gg	-no-
.	.	.	.	.	.	.	.	1d	-bi-	.	1dd	-bi-	1ff#X	-bi-
=40-	=40-	=40-	=40-	=40-	=40-	=40-	=40-	=40-	=40-	=40-	=40-	=40-	=40-	=40-
1g	Sed	1g	Sed	1b-	Sed	1dd	ſed	0.G	-um	1%3ryy	0.b-y	-um	0.gg	-um
1g	Va-	1g	Va-	1b-	Va-	1dd	Va-	.	.	.	.	.	.	.
*	*	*	*	*custos:dd	*	*	*	*	*	*	*	*	*	*
1g	-le	1d	-le	1b-	-le	1dd	-le	.	.	.	.	.	.	.
!	!	!	!	!LO:LB:g=original	!	!	!	!	!	!	!	!	!	!
=41-	=41-	=41-	=41-	=41-	=41-	=41-	=41-	=41-	=41-	=41-	=41-	=41-	=41-	=41-
1d	di-	1f#X	di-	1dd	di-	1dd	di-	1d	ſed	1%3ryy	1a	sed	1ff#X	Sed
1d	-cens	1f#	-cens	1dd	-cens	1dd	-cens	1d	Va-	.	1a	Va-	1ff#	Va-
1d	re-	1f#	re-	1dd	re-	1dd	re-	1d	-le	.	1a	-le	1ff#	-le
=42-	=42-	=42-	=42-	=42-	=42-	=42-	=42-	=42-	=42-	=42-	=42-	=42-	=42-	=42-
*	*	*	*	*	*	*custos:cc	*	*	*	*	*	*	*	*
!	!	!	!	!LO:N:acc=#	!	!	!	!	!	!	!LO:N:acc=#	!	!	!
0.g	-uer-	0.g	-uer-	0.bn	-uer-	0.dd	-uer-	1G	di-	1%3ryy	1bn	di-	1dd	di-
.	.	.	.	.	.	.	.	1G	-cens	.	1b	-cens	1dd	-cens
*	*	*	*	*	*	*	*	*	*	*	*custos:cc	*	*	*
.	.	.	.	.	.	.	.	1G	re-	.	1b	re-	1dd	re-
!	!	!	!	!	!	!LO:LB:g=original	!	!	!	!	!LO:LB:g=original	!	!	!
=43-	=43-	=43-	=43-	=43-	=43-	=43-	=43-	=43-	=43-	=43-	=43-	=43-	=43-	=43-
0.c	-tar	0.g	-tar	0.g	-tar	0.cc	-tar	0c	-uer-	1%3ryy	0cc	-uer-	0ee-X	-uer-
.	.	.	.	.	.	.	.	1c	-tar	.	1cc	-tar	1ee-	-tar
=44-	=44-	=44-	=44-	=44-	=44-	=44-	=44-	=44-	=44-	=44-	=44-	=44-	=44-	=44-
0g	ad	0g	ad	0g	ad	0dd	ad	0G	ad	1%3ryy	0b-y	ad	0dd	ad
1g	cae-	1g	cae-	1dd	cae-	1b-y	cae-	1G	cae-	.	1b-	cae-	1dd	cae-
=45-	=45-	=45-	=45-	=45-	=45-	=45-	=45-	=45-	=45-	=45-	=45-	=45-	=45-	=45-
0d	-no-	0g	-no-	0dd	-no-	0dd	-no-	0d	-no-	1%3ryy	0a	-no-	0dd	no-
1d	-bi-	1f#X	-bi-	1dd	-bi-	1dd	-bi-	1d	-bi-	.	1a	-bi-	1dd	-bi-
=46-	=46-	=46-	=46-	=46-	=46-	=46-	=46-	=46-	=46-	=46-	=46-	=46-	=46-	=46-
*M2/1	*	*M2/1	*	*M2/1	*	*M2/1	*	*M2/1	*	*M2/1	*M2/1	*	*M2/1	*
*met(c|)	*	*met(c|)	*	*met(c|)	*	*met(c|)	*	*met(c|)	*	*met(c|)	*met(c|)	*	*met(c|)	*
!	!	!	!	!	!	!LO:N:acc=#	!	!	!	!	!	!	!	!
!	!	!	!	!	!	!	!	!	!	!	!LO:N:acc=#	!	!	!
1g	-um.	1g	-um	1dd	-um	1bn	-um	1G	-um,	0ryy	1bn	-um,	1dd	-um
2G/	Quid	1r	.	00r	.	0r	.	00r	.	.	00r	.	00r	.
2A/	eſt	.	.	.	.	.	.	.	.	.	.	.	.	.
=47-	=47-	=47-	=47-	=47-	=47-	=47-	=47-	=47-	=47-	=47-	=47-	=47-	=47-	=47-
1B-	quod	1d	Quid	.	.	.	.	.	.	0ryy	.	.	.	.
2.c/	lo-	1eny	eſt	.	.	2g/	quid	.	.	.	.	.	.	.
.	.	.	.	.	.	2a/	eſt	.	.	.	.	.	.	.
*custos:d	*	*	*	*	*	*	*	*	*	*	*	*	*	*
4c/	-que-	.	.	.	.	.	.	.	.	.	.	.	.	.
!LO:LB:g=original	!	!	!	!	!	!	!	!	!	!	!	!	!	!
=48-	=48-	=48-	=48-	=48-	=48-	=48-	=48-	=48-	=48-	=48-	=48-	=48-	=48-	=48-
1d	-ris	1f#X	quod	.	.	1b-y	quod	.	.	0ryy	.	.	.	.
1e-X	so-	2.g\	lo-	1g	quid	2.cc\	lo-	00r	.	.	00r	.	00r	.
*	*	*custos:f#	*	*	*	*	*	*	*	*	*	*	*	*
.	.	4g\	-que-	.	.	4cc\	-que-	.	.	.	.	.	.	.
!	!	!LO:LB:g=original	!	!	!	!	!	!	!	!	!	!	!	!
=49-	=49-	=49-	=49-	=49-	=49-	=49-	=49-	=49-	=49-	=49-	=49-	=49-	=49-	=49-
2d,<\	-ror	1f#X	-ris	2a\	eſt	1dd	-ris	.	.	0ryy	.	.	.	.
2d\	quod	.	.	2b-y\	quod	.	.	.	.	.	.	.	.	.
2.c/	lo-	(>2g\	so-	2.cc\	lo-	1ee-X	so-	.	.	.	.	.	.	.
.	.	2a\)	.	.	.	.	.	.	.	.	.	.	.	.
4c/	-que-	.	.	4cc\	-que-	.	.	.	.	.	.	.	.	.
=50-	=50-	=50-	=50-	=50-	=50-	=50-	=50-	=50-	=50-	=50-	=50-	=50-	=50-	=50-
2B-/	-ris	1b-	.	2dd\	-ris	0dd	-ror	.	.	0ryy	.	.	.	.
2B-/	so-	.	.	2dd\	so-	.	.	.	.	.	.	.	.	.
1B-	-ror	1fny,<	-ror	1b-,<	-ror	.	.	00r	.	.	00r	.	00r	.
=51-	=51-	=51-	=51-	=51-	=51-	=51-	=51-	=51-	=51-	=51-	=51-	=51-	=51-	=51-
2.f\	ma-	2.f\	ma-	2.a\	ma-	2.cc\	ma-	.	.	0ryy	.	.	.	.
4f\	-ne-	4f\	-ne-	4a\	-ne-	4cc\	-ne-	.	.	.	.	.	.	.
2d\	-re	2f\	-re	2b-,<\	-re	2dd\	-re	.	.	.	.	.	.	.
*	*	*	*	*custos:b-	*	*	*	*	*	*	*	*	*	*
2d\	ex-	2f\	ex-	2b-\	ex-	2dd\	ex-	.	.	.	.	.	.	.
!	!	!	!	!LO:LB:g=original	!	!	!	!	!	!	!	!	!	!
=52-	=52-	=52-	=52-	=52-	=52-	=52-	=52-	=52-	=52-	=52-	=52-	=52-	=52-	=52-
2e-X\	-tra	2g\	-tra	2b-\	-tra	2b-/	-tra	.	.	0ryy	.	.	.	.
2c/	cel-	2a\	cael-	2cc\	cel-	2ee-X\	cel-	.	.	.	.	.	.	.
2B-/	-lam	2b-\	-lam	2dd\	-lam	2dd\	-lam	0r	.	.	0r	.	0r	.
*	*	*	*	*	*	*custos:ff	*	*	*	*	*	*	*	*
2B-/	non	2b-\	non	2b-\	non	2dd\	non	.	.	.	.	.	.	.
!	!	!	!	!	!	!LO:LB:g=original	!	!	!	!	!	!	!	!
=53-	=53-	=53-	=53-	=53-	=53-	=53-	=53-	=53-	=53-	=53-	=53-	=53-	=53-	=53-
2.f\	Va-	2b-\	Va-	2.cc\	va-	2.ff\	Va-	.	.	0ryy	.	.	.	.
.	.	2a\	-le-	.	.	.	.	.	.	.	.	.	.	.
4f\	-le-	.	.	4cc\	-le-	4ff\	-le-	.	.	.	.	.	.	.
1B-	-o	1b-	-o	1b-	-o	1dd	-o	1r	.	.	1r	.	1r	.
!	!	!	!	!	!	!	!	!	!	!	!	!	!LO:LB:g=original	!
=54-	=54-	=54-	=54-	=54-	=54-	=54-	=54-	=54-	=54-	=54-	=54-	=54-	=54-	=54-
*M3/1	*	*M3/1	*	*M3/1	*	*M3/1	*	*M3/1	*	*M3/1	*M3/1	*	*M3/1	*
!LO:N:vis=00	!	!O:N:vis=00	!	!LO:N:vis=00	!	!LO:N:vis=00	!	!	!	!	!	!	!	!
00.r	.	00.r	.	00.r	.	00.r	.	1B-	Sed	1%3ryy	1b-y	Sed	1dd	sed
.	.	.	.	.	.	.	.	1F	Va-	.	1a	Va-	1cc	Va-
.	.	.	.	.	.	.	.	1G	-le	.	1b-	-le	1b-	-le
=55-	=55-	=55-	=55-	=55-	=55-	=55-	=55-	=55-	=55-	=55-	=55-	=55-	=55-	=55-
.	.	.	.	.	.	.	.	1d	di-	1%3ryy	1a	di-	1dd	di-
.	.	.	.	.	.	.	.	1d	-cens	.	1a	-cens	1dd	-cens
.	.	.	.	.	.	.	.	1d	re-	.	1a	re-	1dd	re-
=56-	=56-	=56-	=56-	=56-	=56-	=56-	=56-	=56-	=56-	=56-	=56-	=56-	=56-	=56-
*custos:g	*	*	*	*	*	*	*	*	*	*	*	*	*	*
!LO:N:vis=00	!	!O:N:vis=00	!	!LO:N:vis=00	!	!LO:N:vis=00	!	!	!	!	!	!	!	!
00.r	.	00.r	.	00.r	.	00.r	.	0e-X	-uer-	1%3ryy	0g	-uer-	0b-	-uer-
*	*	*	*	*	*	*	*	*custos:d	*	*	*	*	*	*
.	.	.	.	.	.	.	.	1c	-tar	.	1a	-tar	1ee-X	-tar
!	!	!	!	!	!	!	!	!LO:LB:g=original	!	!	!	!	!	!
=57-	=57-	=57-	=57-	=57-	=57-	=57-	=57-	=57-	=57-	=57-	=57-	=57-	=57-	=57-
.	.	.	.	.	.	.	.	0d	ad	1%3ryy	0a	ad	0dd	ad
.	.	.	.	.	.	.	.	1G	cae-	.	1b-	cae-	1b-	cae
!LO:LB:g=original	!	!	!	!	!	!	!	!	!	!	!	!	!	!
=58-	=58-	=58-	=58-	=58-	=58-	=58-	=58-	=58-	=58-	=58-	=58-	=58-	=58-	=58-
!LO:N:vis=0	!	!	!	!	!	!LO:N:vis=0	!	!	!	!	!	!	!	!
1%3r	.	1%3r	.	1%3r	.	1%3r	.	0d	-no-	1%3ryy	0a	-no-	0dd	no-
.	.	.	.	.	.	.	.	1d	-bi-	.	1a	-bi-	1dd	-bi-
=59-	=59-	=59-	=59-	=59-	=59-	=59-	=59-	=59-	=59-	=59-	=59-	=59-	=59-	=59-
!	!	!	!	!LO:N:acc=#	!	!	!	!	!	!	!	!	!LO:N:acc=#	!
1g	Sed	1g	Sed	1bn	Sed	1dd	Sed	0.G	-um	1%3ryy	0.g	-um	0.bn	-um
1g	Va-	1g	Va-	1b	Va-	1dd	Va-	.	.	.	.	.	.	.
1g	-le	1g	-le	1b	-le	1dd	-le	.	.	.	.	.	.	.
=60-	=60-	=60-	=60-	=60-	=60-	=60-	=60-	=60-	=60-	=60-	=60-	=60-	=60-	=60-
!	!	!	!	!	!	!	!	!	!	!	!	!	!LO:N:vis=00	!
1c	di-	1g	di-	1cc	di-	1eeny	di-	00.r	.	1%3ryy	00.r	.	00.r	.
*	*	*custos:a	*	*	*	*	*	*	*	*	*	*	*	*
1c	-cens	1g	-cens	1cc	-cens	1ee	-cens	.	.	.	.	.	.	.
!	!	!LO:LB:g=original	!	!	!	!	!	!	!	!	!	!	!	!
1A	re-	1a	re-	1cc	re-	1ff	re-	.	.	.	.	.	.	.
=61-	=61-	=61-	=61-	=61-	=61-	=61-	=61-	=61-	=61-	=61-	=61-	=61-	=61-	=61-
0B-	-uer-	0f	-uer-	0dd	-uer-	0dd	-uer-	.	.	1%3ryy	.	.	.	.
1c	-tar	1a	-tar	1cc	-tar	1ee	-tar	.	.	.	.	.	.	.
=62-	=62-	=62-	=62-	=62-	=62-	=62-	=62-	=62-	=62-	=62-	=62-	=62-	=62-	=62-
!	!	!	!	!	!	!	!	!LO:N:vis=00	!	!	!LO:N:vis=00	!	!LO:N:vis=00	!
0d	ad	0a	ad	0a	ad	0ff#X	ad	00.r	.	1%3ryy	00.r	.	00.r	.
1e-X	cae-	1g	cae-	1cc	cae-	1gg	cae-	.	.	.	.	.	.	.
=63-	=63-	=63-	=63-	=63-	=63-	=63-	=63-	=63-	=63-	=63-	=63-	=63-	=63-	=63-
0d	-no-	0a	-no-	0dd	-no-	0gg	-no-	.	.	1%3ryy	.	.	.	.
1d	-bi-	1a	-bi-	1dd	-bi-	1ff#X	-bi-	.	.	.	.	.	.	.
=64-	=64-	=64-	=64-	=64-	=64-	=64-	=64-	=64-	=64-	=64-	=64-	=64-	=64-	=64-
*	*	*	*	*custos:a	*	*	*	*	*	*	*	*	*	*
0.G	-um	0.g	-um	0.b-y	-um	0.gg	-um	1g	Sed	1%3ryy	1b-	Sed	1dd	Sed
*	*	*	*	*	*	*	*	*	*	*	*custos:b-	*	*	*
.	.	.	.	.	.	.	.	1g	Va-	.	1b-	Va-	1dd	Va-
!	!	!	!	!	!	!	!	!	!	!	!LO:LB:g=original	!	!	!
.	.	.	.	.	.	.	.	1g	-le	.	1b-	-le	1dd	-le
!	!	!	!	!LO:LB:g=original	!	!	!	!	!	!	!	!	!	!
=65-	=65-	=65-	=65-	=65-	=65-	=65-	=65-	=65-	=65-	=65-	=65-	=65-	=65-	=65-
1d	Sed	1a	Sed	1a	Sed	1ff#X	Sed	1d	di-	1%3ryy	1dd	di-	1dd	di-
1d	Va-	1a	Va-	1a	Va-	1ff#	Va-	1d	-cens	.	1dd	-cens	1dd	-cens
1d	-le	1a	-le	1a	-le	1ff#	-le	1d	re-	.	1dd	re-	1dd	re-
=66-	=66-	=66-	=66-	=66-	=66-	=66-	=66-	=66-	=66-	=66-	=66-	=66-	=66-	=66-
!	!	!	!	!LO:N:acc=#	!	!	!	!	!	!	!LO:N:acc=#	!	!	!
!	!	!	!	!LO:TX:a:t=P:problem=w źródle brak znaku	!	!	!	!	!	!	!	!	!	!
1G	di-	1g	di-	1bny	di-	1dd	di-	0.g	-uer-	1%3ryy	0.bn	-uer-	0.dd	-uer-
1G	-cens	1g	-cens	1b	-cens	1dd	-cens	.	.	.	.	.	.	.
*	*	*	*	*	*	*custos:ee-	*	*	*	*	*	*	*	*
1G	re-	1g	re-	1b	re-	1dd	re-	.	.	.	.	.	.	.
!	!	!	!	!	!	!LO:LB:g=original	!	!	!	!	!	!	!	!
=67-	=67-	=67-	=67-	=67-	=67-	=67-	=67-	=67-	=67-	=67-	=67-	=67-	=67-	=67-
0c	-uer-	0g	-uer-	0cc	-uer-	0ee-X	-uer-	0.c	-tar	1%3ryy	0.cc	-tar	0.cc	-tar
*custos:G	*	*	*	*	*	*	*	*	*	*	*	*	*	*
1c	-tar	1g	-tar	1cc	-tar	1ee-	-tar	.	.	.	.	.	.	.
!LO:PB:g=original	!	!	!	!	!	!	!	!	!	!	!	!	!	!
=68-	=68-	=68-	=68-	=68-	=68-	=68-	=68-	=68-	=68-	=68-	=68-	=68-	=68-	=68-
0G	ad	0g	ad	0b-y	ad	0dd	ad	0g	ad	1%3ryy	0g	ad	0dd	ad
1G	cae-	1g	cae-	1b-	cae-	1dd	cae-	1g	cae-	.	1dd	ce-	1b-y	cae-
=69-	=69-	=69-	=69-	=69-	=69-	=69-	=69-	=69-	=69-	=69-	=69-	=69-	=69-	=69-
0d	-no-	0a	-no-	0a	-no-	0dd	-no-	0d	-no-	1%3ryy	0dd	-no-	0dd	-no-
1d	-bi-	1a	-bi-	1a	-bi-	1dd	-bi-	1d	-bi-	.	1dd	-bi-	1dd	-bi-
=70-	=70-	=70-	=70-	=70-	=70-	=70-	=70-	=70-	=70-	=70-	=70-	=70-	=70-	=70-
*M2/1	*	*M2/1	*	*M2/1	*	*M2/1	*	*M2/1	*	*M2/1	*M2/1	*	*M2/1	*
*met(c|)	*	*met(c|)	*	*met(c|)	*	*met(c|)	*	*met(c|)	*	*met(c|)	*met(c|)	*	*met(c|)	*
*	*	*	*	*	*	*	*	*	*	*	*	*	*custos:dd	*
!	!	!	!	!LO:N:acc=#	!	!	!	!	!	!	!	!	!	!
!	!	!	!	!	!	!	!	!	!	!	!	!	!LO:TX:t=P:problem=♯ below	!
!	!	!	!	!	!	!	!	!	!	!	!	!	!LO:N:acc=#	!
1G	-um	1g	-um	1bn	-um	1dd	-um	1g	-um	0ryy	1dd	-um	1bn	-um
!	!	!LO:PB:g=original	!	!	!	!	!	!	!	!	!	!	!LO:PB:g=original	!
!	!	!	!	!	!	!	!	!	!	!	!LO:N:acc=#	!	!	!
00r	.	00r	.	00r	.	00r	.	0r	.	.	2bn\	Tunc	2dd\	Tunc
.	.	.	.	.	.	.	.	.	.	.	4b\	in-	4dd\	in-
.	.	.	.	.	.	.	.	.	.	.	4b\	-cli-	4dd\	-cli-
=71-	=71-	=71-	=71-	=71-	=71-	=71-	=71-	=71-	=71-	=71-	=71-	=71-	=71-	=71-
.	.	.	.	.	.	.	.	.	.	0ryy	2cc\	-na-	2ee-X\	-na-
.	.	.	.	.	.	.	.	.	.	.	2dd\	-to	2dd\	-to
.	.	.	.	.	.	.	.	1r	.	.	2.ee-X\	ca-	2.cc\	ca-
.	.	.	.	.	.	.	.	.	.	.	4ee-\	-pi-	4cc\	-pi-
=72-	=72-	=72-	=72-	=72-	=72-	=72-	=72-	=72-	=72-	=72-	=72-	=72-	=72-	=72-
.	.	.	.	.	.	.	.	4r	.	0ryy	4dd,<\	-te	4b-y,</	-te
*	*	*	*	*	*	*	*	*	*	*	*	*	*	*ij
!	!	!	!	!	!	!	!	!	!	!	!LO:N:acc=#	!	!	!
.	.	.	.	.	.	.	.	4G/	Tunc	.	4bn\	tunc	4dd\	Tunc
.	.	.	.	.	.	.	.	4G/	in-	.	4b\	in-	4dd\	in-
.	.	.	.	.	.	.	.	4G/	-cli-	.	4b\	-cli-	4dd\	-cli-
0r	.	0r	.	0r	.	0r	.	2c/	-na-	.	2cc\	-na-	2ee-X\	-na-
.	.	.	.	.	.	.	.	2B-/	-to	.	2dd\	-to	2dd\	-to
=73-	=73-	=73-	=73-	=73-	=73-	=73-	=73-	=73-	=73-	=73-	=73-	=73-	=73-	=73-
.	.	.	.	.	.	.	.	2.f\	ca-	0ryy	2.cc\	ca-	2.ffny\	ca-
*	*	*	*	*	*	*	*	*custos:B-	*	*	*custos:dd	*	*	*
.	.	.	.	.	.	.	.	4f\	-pi-	.	4cc\	-pi-	4ff\	-pi-
!	!	!	!	!	!	!	!	!LO:LB:g=original	!	!	!LO:PB:g=original	!	!	!
!LO:N:vis=1	!	!LO:N:vis=1	!	!LO:N:vis=1	!	!LO:N:vis=1	!	!	!	!	!	!	!	!
1r	.	1r	.	1r	.	1r	.	1B-	-te	.	1dd	-te	1dd	-te
*	*	*	*	*	*	*	*	*	*	*	*	*	*	*Xij
=74-	=74-	=74-	=74-	=74-	=74-	=74-	=74-	=74-	=74-	=74-	=74-	=74-	=74-	=74-
!	!	!	!	!	!	!	!	!	!	!	!	!	!LO:N:vis=00	!
2G/	tunc	2g\	tunc	2b-y\	tunc	2dd\	tunc	0r	.	0ryy	0r	.	00r	.
4G/	in-	4g\	in-	4b-\	in-	4dd\	in-	.	.	.	.	.	.	.
4G/	-cli-	4g\	-cli-	4b-\	-cli-	4dd\	-cli-	.	.	.	.	.	.	.
2G/	-na-	2g\	-na-	2b-\	-na-	2dd\	-na-	.	.	.	.	.	.	.
2A/	-to	2f\	-to	2cc\	-to	2cc\	-to	.	.	.	.	.	.	.
=75-	=75-	=75-	=75-	=75-	=75-	=75-	=75-	=75-	=75-	=75-	=75-	=75-	=75-	=75-
2.B-/	ca-	2.f\	ca-	2.b-\	ca-	2.dd\	ca-	1r	.	0ryy	1r	.	.	.
4B-/	-pi-	4f\	-pi-	4b-\	-pi-	4dd\	-pi-	.	.	.	.	.	.	.
1F	-te	1f	-te	1a	-te	1cc	-te	2f\	tunc	.	2cc\	tunc	.	.
.	.	.	.	.	.	.	.	4f\	in-	.	4cc\	in-	.	.
.	.	.	.	.	.	.	.	4f\	-cli-	.	4cc\	-cli-	.	.
=76-	=76-	=76-	=76-	=76-	=76-	=76-	=76-	=76-	=76-	=76-	=76-	=76-	=76-	=76-
0r	.	0r	.	0r	.	0r	.	2d\	-na-	0ryy	2dd\	-na-	2ff\	tunc
.	.	.	.	.	.	.	.	2d\	-to	.	2dd\	-to	4ff\	in-
.	.	.	.	.	.	.	.	.	.	.	.	.	4ff\	-cli-
!	!	!	!	!	!	!	!	!	!	!	!LO:N:acc=#	!	!	!
.	.	.	.	.	.	.	.	1.g	ca-	.	2bn\	ca-	2ff\	-na-
.	.	.	.	.	.	.	.	.	.	.	1cc\	.	2ee-X\	-to
=77-	=77-	=77-	=77-	=77-	=77-	=77-	=77-	=77-	=77-	=77-	=77-	=77-	=77-	=77-
1r	.	1r	.	1r	.	1r	.	.	.	0ryy	.	.	2.dd\	ca-
!	!	!	!	!	!	!	!	!	!	!	!LO:N:acc=#	!	!	!
.	.	.	.	.	.	.	.	2g\	-pi-	.	2bn\	-pi-	.	.
.	.	.	.	.	.	.	.	.	.	.	.	.	4dd\	-pi-
2c/	in	2g\	in	2cc\	in	2eeny\	in	1c	-te	.	1cc	-te	1cc	-te
4.c/	ma-	4.g\	ma-	4.cc\	ma-	4.ee\	ma-	.	.	.	.	.	.	.
*	*	*	*	*custos:a	*	*	*	*	*	*	*	*	*	*
8c/	-ni-	8g\	-ni-	8cc\	-[ni]-	8ee\	-ni-	.	.	.	.	.	.	.
!	!	!	!	!LO:PB:g=original	!	!	!	!	!	!	!	!	!	!
=78-	=78-	=78-	=78-	=78-	=78-	=78-	=78-	=78-	=78-	=78-	=78-	=78-	=78-	=78-
2c/	-bus	2g\	-bus	2a,<\	-bus	2ee\	-bus	00r	.	0ryy	00r	.	00r	.
*	*	*	*	*	*	*custos:ee	*	*	*	*	*	*	*	*
2d\	im-	2f\	im-	2cc\	im-	2ffny\	im-	.	.	.	.	.	.	.
!	!	!	!	!	!	!LO:PB:g=original	!	!	!	!	!	!	!	!
4c/	-bre(m)	4g\	-brem	4cc\	-brem	4ee\	-brem	.	.	.	.	.	.	.
4A/	o-	4a\	o-	4cc\	o-	4ff\	o-	.	.	.	.	.	.	.
*custos:A	*	*	*	*	*	*	*	*	*	*	*	*	*	*
2B-/	-ran-	2f\	-ran-	2b-\	-ran-	2dd\	-ran-	.	.	.	.	.	.	.
!LO:LB:g=original	!	!	!	!	!	!	!	!	!	!	!	!	!	!
=79-	=79-	=79-	=79-	=79-	=79-	=79-	=79-	=79-	=79-	=79-	=79-	=79-	=79-	=79-
4A/	-do	4a\	-do	4a\	-do	4cc\	-do	.	.	0ryy	.	.	.	.
4F/	ob-	4a\	ob-	4cc\	ob-	4a/	ob-	.	.	.	.	.	.	.
4.G/	-ti-	4.g\	-ti-	4.b-\	-ti-	4.b-/	-ti-	.	.	.	.	.	.	.
8G/	-nu-	8g\	-nu-	8b-\	-nu-	8b-/	-nu-	.	.	.	.	.	.	.
2A,</	-it	2e/	-it	2a,<\	-it	2cc,<\	-it	.	.	.	.	.	.	.
*	*	*custos:f	*	*	*	*	*	*	*	*	*	*	*	*
2B-,</	a	1g\	a	2g/	a	2dd\	a	.	.	.	.	.	.	.
=80-	=80-	=80-	=80-	=80-	=80-	=80-	=80-	=80-	=80-	=80-	=80-	=80-	=80-	=80-
1.A	Do-	.	.	1.a	Do-	2cc#X\	Do-	0r	.	0ryy	0r	.	0r	.
!	!	!LO:LB:g=original	!	!	!	!	!	!	!	!	!	!	!	!
.	.	2f,<\	.	.	.	1dd	.	.	.	.	.	.	.	.
.	.	2.e/	Do-	.	.	.	.	.	.	.	.	.	.	.
2A/	-mi-	.	.	2a\	-mi-	2cc#X\	-mi-	.	.	.	.	.	.	.
.	.	4e/	-mi-	.	.	.	.	.	.	.	.	.	.	.
=81-	=81-	=81-	=81-	=81-	=81-	=81-	=81-	=81-	=81-	=81-	=81-	=81-	=81-	=81-
*	*	*	*	*	*	*	*	*	*ij	*	*	*	*	*
0d	-no	0f#X	-no	0a	-no	0dd	-no	2d\	tunc	1ryy	2dd\	tunc	2ff#X\	tun[c]
.	.	.	.	.	.	.	.	4d\	in-	.	4dd\	in-	4ff#\	in-
.	.	.	.	.	.	.	.	4d\	-cli-	.	4dd\	-cli-	4ff#\	-cli-
*	*	*	*	*	*	*	*	*	*	*	*	*	*custos:ff#	*
.	.	.	.	.	.	.	.	2d\	-na-	1ryy	2dd\	-na-	2ff#\	-na-
!	!	!	!	!	!	!	!	!	!	!	!	!	!LO:LB:g=original	!
.	.	.	.	.	.	.	.	2d\	-to	.	2dd\	-to	2ff#X\	-to
=82-	=82-	=82-	=82-	=82-	=82-	=82-	=82-	=82-	=82-	=82-	=82-	=82-	=82-	=82-
2g\	Tunc	2g\	tunc	2b-\	tunc	2dd\	tunc	2.G/	ca-	0ryy	2.dd\	ca-	2.gg\	ca-
4g\	in-	4g\	in-	4b-\	in-	4dd\	in-	.	.	.	.	.	.	.
4g\	-cli-	4g\	-cli-	4b-\	-cli-	4dd\	-cli-	4G/	-pi-	.	4dd\	-pi-	4gg\	-pi-
2g\	-na-	2g\	-na-	2b-\	-na-	2dd\	-na-	1G,<	-te	.	1b-y,<	-te	1dd	-te
*	*	*	*	*	*	*	*	*	*Xij	*	*	*	*	*
2g\	-to	2g\	-to	2b-\	-to	2dd\	-to	.	.	.	.	.	.	.
=83-	=83-	=83-	=83-	=83-	=83-	=83-	=83-	=83-	=83-	=83-	=83-	=83-	=83-	=83-
*	*	*	*	*	*	*	*	*	*	*	*	*ij	*	*ij
2.d\	ca-	2.a\	ca-	2.dd\	ca-	2.dd\	ca-	2d\	Tunc	0ryy	2a\	tunc	2dd\	tun
.	.	.	.	.	.	.	.	4d\	in-	.	4a\	in-	4dd\	in-
4d\	-pi-	4a\	-pi-	4a\	-pi-	4dd\	-pi-	4d\	-cli-	.	4a\	-cli-	4dd\	-cli-
1d	-te	1fny	-te	1a	-te	1dd	-te	2d\	-na-	.	2a\	-na-	2dd\	-na-
*	*	*	*	*	*	*	*	*	*	*	*custos:cc#	*	*	*
.	.	.	.	.	.	.	.	2d\	-to	.	2dd\	-to	2dd\	-to
*	*	*	*	*	*	*	*	*	*	*	*	*Xij	*	*
!	!	!	!	!	!	!	!	!	!	!	!LO:LB:g=original	!	!	!
=84-	=84-	=84-	=84-	=84-	=84-	=84-	=84-	=84-	=84-	=84-	=84-	=84-	=84-	=84-
00r	.	00r	.	00r	.	00r	.	2.A/	ca-	0ryy	2.cc#X\	ca-	2.eeny\	ca-
.	.	.	.	.	.	.	.	4A/	-pi-	.	4cc#\	-pi-	4ee\	-pi-
*	*	*	*	*	*	*	*	*custos:d	*	*	*	*	*	*
.	.	.	.	.	.	.	.	1A	-te	.	1cc#	-te	1ee	-te
*	*	*	*	*	*	*	*	*	*	*	*	*	*	*Xij
!	!	!	!	!	!	!	!	!LO:PB:g=original	!	!	!	!	!	!
=85-	=85-	=85-	=85-	=85-	=85-	=85-	=85-	=85-	=85-	=85-	=85-	=85-	=85-	=85-
.	.	.	.	.	.	.	.	2d\	im-	0ryy	2dd\	im-	2ffny\	im-
.	.	.	.	.	.	.	.	4c/	-brem	.	4eeny\	-brem	4ee\	-brem
.	.	.	.	.	.	.	.	4A/	o-	.	4ccny\	o-	4ff\	o-
.	.	.	.	.	.	.	.	2B-/	-ran-	.	2b-\	-ran-	2dd\	-ran-
.	.	.	.	.	.	.	.	4A/	-do	.	4cc\	-do	4cc\	-do
.	.	.	.	.	.	.	.	4F/	ob-	.	4a\	ob-	4cc\	ob-
=86-	=86-	=86-	=86-	=86-	=86-	=86-	=86-	=86-	=86-	=86-	=86-	=86-	=86-	=86-
1r	.	1r	.	1r	.	1r	.	4.G/	-ti-	0ryy	4.b-\	-ti-	4.b-/	-ti-
.	.	.	.	.	.	.	.	8G/	-nu-	.	8b-\	-nu-	8b-/	-nu-
.	.	.	.	.	.	.	.	4A/	-it	.	4a\	-it	4cc\	-it
.	.	.	.	.	.	.	.	4B-X/	a	.	4g/	a	4dd\	a
2r	.	2r	.	2r	.	2r	.	4.A/	Do-	.	4.a\	Do-	4.cc#X\	Do-
.	.	.	.	.	.	.	.	8A/	-mi-	.	8a\	-mi-	8cc#\	-mi-
*	*	*	*	*custos:a	*	*	*	*	*	*	*	*	*	*
2d\	im-	2a\	im-	2dd\	im-	2ff\	im-	2d\	-no	.	2a\	-no	2dd\	-no
!	!	!	!	!LO:LB:g=original	!	!	!	!	!	!	!	!	!	!
=87-	=87-	=87-	=87-	=87-	=87-	=87-	=87-	=87-	=87-	=87-	=87-	=87-	=87-	=87-
4c/	-brem	4a\	-brem	4a\	-brem	4ee\	-brem	0r	.	0ryy	0r	.	0r	.
*	*	*	*	*	*	*custos:dd	*	*	*	*	*	*	*	*
4A/	o-	4a\	o-	4cc\	o-	4ff\	o-	.	.	.	.	.	.	.
!	!	!	!	!	!	!LO:LB:g=original	!	!	!	!	!	!	!	!
2B-/	-ran-	2f\	-ran-	2b-\	-ran-	2dd\	-ran-	.	.	.	.	.	.	.
4A/	-do	4f\	-do	4a\	-do	4ccny\	-do	.	.	.	.	.	.	.
*custos:G	*	*	*	*	*	*	*	*	*	*	*	*	*	*
4F/	[ob]-	4a\	ob-	4cc\	ob-	4ff\	ob-	.	.	.	.	.	.	.
!LO:LB:g=original	!	!	!	!	!	!	!	!	!	!	!	!	!	!
4.G/	-ti-	4.g\	-ti-	4.b-\	-ti-	4.dd\	-ti-	.	.	.	.	.	.	.
8G/	-nu-	8g\	-nu-	8b-\	-nu-	8dd\	-nu-	.	.	.	.	.	.	.
=88-	=88-	=88-	=88-	=88-	=88-	=88-	=88-	=88-	=88-	=88-	=88-	=88-	=88-	=88-
4A/	-it	4e/	-it	4a\	-it	4cc#X,<\	-it	1r	.	0ryy	1r	.	1r	.
4B-/	à	4g\	a	4g/	a	4dd\	a	.	.	.	.	.	.	.
4.A/	Do-	4.e/	Do-	4.a\	Do-	4.cc#X\	Do-	.	.	.	.	.	.	.
*	*	*custos:f	*	*	*	*	*	*	*	*	*	*	*	*
8A/	-mi-	8e/	-mi-	8a\	-mi-	8cc#\	-mi-	.	.	.	.	.	.	.
!	!	!LO:LB:g=original	!	!	!	!	!	!	!	!	!	!	!	!
2d\	-no	2f\	-no	2a\	-no	2dd\	-no	2d\	im-	.	2a\	im-	2ff\	im-
2r	.	2r	.	2r	.	2r	.	4c/	-brem	.	4cc\	-brem	4ee\	-bre(m)
.	.	.	.	.	.	.	.	4A/	o-	.	4cc\	o-	4ff\	o-
=89-	=89-	=89-	=89-	=89-	=89-	=89-	=89-	=89-	=89-	=89-	=89-	=89-	=89-	=89-
*	*	*	*	*	*	*	*	*	*	*	*	*	*custos:ee-	*
0r	.	0r	.	0r	.	0r	.	2B-/	-ran-	0ryy	2dd\	-ran-	2dd\	-ran-
!	!	!	!	!	!	!	!	!	!	!	!	!	!LO:LB:g=original	!
.	.	.	.	.	.	.	.	4c/	-do	.	4cc\	-do	4ee-X\	-do
.	.	.	.	.	.	.	.	4c/	ob-	.	4cc\	ob-	4ee-\	ob-
.	.	.	.	.	.	.	.	4.d\	-ti-	.	4.a\	-ti-	4.dd\	-ti-
.	.	.	.	.	.	.	.	8d\	-nu-	.	8a\	-nu-	8dd\	-nu-
.	.	.	.	.	.	.	.	4e-X\	-it	.	4g,</	-it	4ccny\	-it
*	*	*	*	*	*	*	*	*custos:d	*	*	*	*	*	*
.	.	.	.	.	.	.	.	4e-\	a	.	2cc\	a	4cc\	a
!	!	!	!	!	!	!	!	!LO:LB:g=original	!	!	!	!	!	!
=90-	=90-	=90-	=90-	=90-	=90-	=90-	=90-	=90-	=90-	=90-	=90-	=90-	=90-	=90-
2r	.	2r	.	2r	.	2r	.	2.d\	Do-	0ryy	.	.	2.dd\	Do-
*	*	*	*	*	*	*	*	*	*	*	*custos:a	*	*	*
.	.	.	.	.	.	.	.	.	.	.	4b-\	.	.	.
!	!	!	!	!	!	!	!	!	!	!	!LO:LB:g=original	!	!	!
2d\	ob-	2a\	ob-	2dd\	ob-	2dd\	ob-	.	.	.	4.a\	Do-	.	.
.	.	.	.	.	.	.	.	4d\	-mi-	.	.	.	4dd\	-mi-
.	.	.	.	.	.	.	.	.	.	.	8a\	-mi-	.	.
2.g\	-ti-	2.g\	-ti-	2.b-\	-ti-	2.dd\	-ti-	1G	-no	.	1b-	-no	1dd	-no
4g\	-nu-	4g\	-nu-	4cc\	-nu-	4ee\	-nu-	.	.	.	.	.	.	.
=91-	=91-	=91-	=91-	=91-	=91-	=91-	=91-	=91-	=91-	=91-	=91-	=91-	=91-	=91-
2d\	-it	2a\	-it	2dd\	-it	2ff#X\	-it	1r	.	0ryy	1r	.	1r	.
2e-X\	a	2g\	a	2cc\	a	2gg\	a	.	.	.	.	.	.	.
2.d\	Do-	2.a\	Do-	2.dd\	Do-	2gg\	Do-	2r	.	.	2r	.	2r	.
.	.	.	.	.	.	2ff#X\	-mi-	2d\	ob-	.	2dd\	ob-	2dd\	ob-
4d\	-mi-	4a\	-mi-	4dd\	-mi-	.	.	.	.	.	.	.	.	.
=92-	=92-	=92-	=92-	=92-	=92-	=92-	=92-	=92-	=92-	=92-	=92-	=92-	=92-	=92-
1g	-no	1g	-no	1b-	-no	1gg	-no	2.G/	-ti-	0ryy	2.dd\	-ti-	2.dd\	-ti-
.	.	.	.	.	.	.	.	4G/	-nu-	.	4cc\	-nu-	4dd\	-nu-
2r	.	2r	.	2r	.	2r	.	1.G	-it	.	2b-\	-it	1dd	-it
2g\	ob-	2g\	ob-	2b-\	ob-	2dd\	ob-	.	.	.	2b-\	ob-	.	.
=93-	=93-	=93-	=93-	=93-	=93-	=93-	=93-	=93-	=93-	=93-	=93-	=93-	=93-	=93-
2.g\	-ti-	2.g\	-ti-	2.b-\	-ti-	2.dd\	-ti-	.	.	0ryy	2.b-\	-ti-	1gg	a
.	.	.	.	.	.	.	.	2G/	a	.	.	.	.	.
*	*	*	*	*custos:a	*	*	*	*	*	*	*	*	*	*
4g\	-nu-	4d/	-nu-	4b-\	-nu-	4dd\	-nu-	.	.	.	4cc\	-nu-	.	.
*	*	*	*	*	*	*custos:dd	*	*	*	*	*	*	*	*
!	!	!	!	!LO:LB:g=original	!	!	!	!	!	!	!	!	!	!
2d\	-it	2d/	-it,	2a,<\	-it	2dd\	-it	1.d	Do-	.	1.dd	-it	2ff#X\	Do-
!	!	!	!	!	!	!LO:LB:g=original	!	!	!	!	!	!	!	!
2d\	ob-	2g\	ob-	2b-\	[ob-	2dd\	ob-	.	.	.	.	.	1gg\	.
=94-	=94-	=94-	=94-	=94-	=94-	=94-	=94-	=94-	=94-	=94-	=94-	=94-	=94-	=94-
2.d\	-ti-	2.d/	-ti-	2.a\	-ti-	2.dd\	-ti-	.	.	0ryy	.	.	.	.
.	.	.	.	.	.	.	.	2d\	-mi-	.	2a\	à	2ff#X\	-mi-
4d\	-nu-	4d/	-nu-	4dd\	-nu-	4dd\	-nu-	.	.	.	.	.	.	.
2G,</	-it	2d/	-it	2b-,<\	-it]	2dd,<\	-it	2g\	-no	.	2b-\	Do-	2gg\	-no
2g,<\	a	2d,</	a	2b-\	a	2dd\	a	2G/	a	.	2b-\	-mi-	4.dd\	a
.	.	.	.	.	.	.	.	.	.	.	.	.	8eeny\	.
=95-	=95-	=95-	=95-	=95-	=95-	=95-	=95-	=95-	=95-	=95-	=95-	=95-	=95-	=95-
1.d	Do-	4d/	Do-	2dd\	Do-	1.dd	Do-	1.d	Do-	0ryy	2a,<\	-no	4.ff#X\	Do-
.	.	4e/	.	.	.	.	.	.	.	.	.	.	.	.
.	.	.	.	.	.	.	.	.	.	.	.	.	8dd\	.
.	.	4f#X\	.	4cc\	.	.	.	.	.	.	2b-\	a	1gg	.
.	.	4g\	.	4b-\	.	.	.	.	.	.	.	.	.	.
.	.	2a\	.	2.a\	.	.	.	.	.	.	2.a\	Do-	.	.
2d\	-mi-	2d/	.	.	.	2dd\	-mi-	2d\	-mi-	.	.	.	2ff#X\	-mi-
.	.	.	.	4dd\	mi-	.	.	.	.	.	4a\	-mi-	.	.
=96-	=96-	=96-	=96-	=96-	=96-	=96-	=96-	=96-	=96-	=96-	=96-	=96-	=96-	=96-
!	!	!	!	!LO:N:acc=#	!	!	!	!	!	!	!LO:N:acc=#	!	!	!
0g	-no	1d	-mi-	0bn	-no.	0dd	-no.	0G	-no	0ryy	0bn	-no	0gg	-no
!	!	!LO:N:vis=0	!	!	!	!	!	!	!	!	!	!	!	!
.	.	1g	-no	.	.	.	.	.	.	.	.	.	.	.
==	==	==	==	==	==	==	==	==	==	==	==	==	==	==
*-	*-	*-	*-	*-	*-	*-	*-	*-	*-	*-	*-	*-	*-	*-
!!!system-decoration: [(s1,s2,s3,s4)][(s5,s6,s7,s8)]
!!!RDF**kern: > = above
!!!RDF**kern: < = below
!!!ENC: Krzysztof Stępień
!!!END: 2021-09-23
!!!ENC: Antoni Szymański
!!!END: 2021-10-17
